src/images_karasa_jaga_svg/cmd/lc_heading4parastyle.svg

<svg height="24" width="24" xmlns="http://www.w3.org/2000/svg" xmlns:xlink="http://www.w3.org/1999/xlink"><linearGradient id="a" gradientUnits="userSpaceOnUse" x1="103.41924" x2="109.01703" y1="112.88807" y2="48.268024"><stop offset="0" stop-color="#06f"/><stop offset="1" stop-color="#80b3ff"/></linearGradient><linearGradient id="b" gradientTransform="matrix(2.9960283 0 0 2.9960284 -6.182746 -773.85961)" gradientUnits="userSpaceOnUse" x1="15.70367" x2="16.933331" y1="294.8226" y2="266.54037"><stop offset="0" stop-color="#555"/><stop offset="1"/></linearGradient><linearGradient id="c" gradientUnits="userSpaceOnUse" x1="119.82502" x2="137.85655" y1="-767.91748" y2="-569.57062"><stop offset="0" stop-color="#3b3e22"/><stop offset="1" stop-color="#454545" stop-opacity="0"/></linearGradient><g transform="matrix(.171875 0 0 .171875 1 .994726)"><path d="m24.499275 62.391315h39.069898v-25.01505q0-6.962952-1.934153-8.897105-1.934153-2.063097-9.41288-2.707815v-2.449928h35.846309v2.449928q-7.478726.644718-9.412879 2.707815-1.934154 1.934153-1.934154 8.897105v57.25094q0 6.834005 2.063097 8.897105 2.063097 2.0631 9.283936 2.70782v2.44992h-35.846309v-2.44992q7.478727-.51578 9.41288-2.70782 1.934153-2.19204 1.934153-10.315484v-25.143994h-39.069898v26.562373q0 6.834005 2.063097 8.897105 2.063097 2.0631 9.283936 2.70782v2.44992h-35.84630867v-2.44992q7.47872637-.51578 9.41287967-2.70782 1.934153-2.19204 1.934153-10.315484v-55.832561q0-6.962952-1.934153-8.897105-1.9341533-2.063097-9.41287967-2.707815v-2.449928h35.84630867v2.449928q-7.478726.644718-9.412879 2.707815-1.934154 1.934153-1.934154 8.897105z" fill="url(#b)" stroke-width="3.063286" transform="scale(.98623208 1.0139601)"/><path d="m8.3925781 25.761719c.9019458.434113 1.7172599.945058 2.3632809 1.646484 2.122795 2.204754 2.490235 5.605452 2.490235 10.490235v35.460937a66.90815 31.99955 0 0 0 8.861328 1.355469v-5.701172a2.0557256 2.1135226 0 0 1 2.054687-2.111328h38.53125a2.0557256 2.1135226 0 0 1 2.054688 2.111328v3.898437a66.90815 31.99955 0 0 0 8.861328-2.283203v-32.730468c0-4.884783.36744-8.285481 2.490234-10.490235.646023-.701426 1.461336-1.212371 2.363282-1.646484h-18.566407c.901946.434113 1.71726.945058 2.363282 1.646484 2.123499 2.205498 2.488281 5.606042 2.488281 10.490235v25.363281a2.0557256 2.1135226 0 0 1 -2.054688 2.113281h-38.53125a2.0557256 2.1135226 0 0 1 -2.054687-2.113281v-25.363281c0-4.884193.364779-8.284737 2.488281-10.490235.646023-.701427 1.461335-1.212371 2.363281-1.646484z" fill="url(#c)" opacity=".75"/><path d="m101.44922 56.015625a11.609979 11.609979 0 0 0 -9.718751 5.261719l-20.333985 31.132812a11.609979 11.609979 0 0 0 -1.890625 6.347656v7.210938a11.609979 11.609979 0 0 0 11.609375 11.60937h10.451172a11.609979 11.609979 0 0 0 11.453124 9.8086h9.16016a11.609979 11.609979 0 0 0 11.58984-11.03711 11.609979 11.609979 0 0 0 6.44336-10.38086v-7.142578a11.609979 11.609979 0 0 0 -6.42383-10.38086v-20.820312a11.609979 11.609979 0 0 0 -11.60937-11.609375z" fill="url(#a)" transform="matrix(.90925365 0 0 .90963812 13.081729 12.185558)"/><path d="m166.2282 109.14665v9.80779h-9.1585v-9.80779h-21.9052v-7.21061l20.33322-31.132048h10.73048v31.200398h6.42461v7.14226zm-9.1585-22.896241q0-.58095 0-1.503634.0342-.956858.0683-1.947889.0684-.991031.10252-1.879542.0684-.922684.13669-1.435286-.17086.375908-.54677 1.093552-.37591.683469-.85434 1.503633-.44425.78599-.95686 1.571981-.47843.78599-.85433 1.366939l-11.17474 16.984227h14.07948z" fill="#ddebff" transform="matrix(.90925365 0 0 .90963812 -36.062923 9.294696)"/></g></svg>

<?xml version="1.0" encoding="UTF-8" standalone="no"?>
<!-- Created with Inkscape (http://www.inkscape.org/) -->

<svg
   xmlns:dc="http://purl.org/dc/elements/1.1/"
   xmlns:cc="http://creativecommons.org/ns#"
   xmlns:rdf="http://www.w3.org/1999/02/22-rdf-syntax-ns#"
   xmlns:svg="http://www.w3.org/2000/svg"
   xmlns="http://www.w3.org/2000/svg"
   xmlns:xlink="http://www.w3.org/1999/xlink"
   xmlns:sodipodi="http://sodipodi.sourceforge.net/DTD/sodipodi-0.dtd"
   xmlns:inkscape="http://www.inkscape.org/namespaces/inkscape"
   width="128"
   height="128"
   id="svg1307"
   sodipodi:version="0.32"
   inkscape:version="0.92.3 (unknown)"
   version="1.0"
   sodipodi:docname="lc_heading4parastyle.svg"
   inkscape:export-filename="/home/rizmut/Dokumen/Rizmut/Github/libreoffice-style-karasa-jaga/build/images_karasa_jaga/cmd/lc_heading4parastyle.png"
   inkscape:export-xdpi="16.5"
   inkscape:export-ydpi="16.5">
  <defs
     id="defs1309">
    <linearGradient
       id="linearGradient5841">
      <stop
         style="stop-color:black;stop-opacity:0;"
         offset="0"
         id="stop5843" />
      <stop
         id="stop5849"
         offset="0.87912089"
         style="stop-color:black;stop-opacity:0;" />
      <stop
         style="stop-color:black;stop-opacity:1;"
         offset="1"
         id="stop5845" />
    </linearGradient>
    <linearGradient
       id="linearGradient3303">
      <stop
         style="stop-color:#ffffff;stop-opacity:0.68345326;"
         offset="0"
         id="stop3305" />
      <stop
         style="stop-color:#ffffff;stop-opacity:0;"
         offset="1"
         id="stop3307" />
    </linearGradient>
    <linearGradient
       id="linearGradient3273">
      <stop
         style="stop-color:#ffffff;stop-opacity:0.55035973;"
         offset="0"
         id="stop3275" />
      <stop
         style="stop-color:#ffffff;stop-opacity:0;"
         offset="1"
         id="stop3277" />
    </linearGradient>
    <linearGradient
       id="linearGradient3259">
      <stop
         id="stop3261"
         offset="0"
         style="stop-color:#ffffff;stop-opacity:0.55035973;" />
      <stop
         id="stop3263"
         offset="1"
         style="stop-color:#000000;stop-opacity:0;" />
    </linearGradient>
    <linearGradient
       id="linearGradient3225">
      <stop
         style="stop-color:#ffffff;stop-opacity:1;"
         offset="0"
         id="stop3227" />
      <stop
         style="stop-color:#aeaeae;stop-opacity:1;"
         offset="1"
         id="stop3229" />
    </linearGradient>
    <linearGradient
       id="linearGradient3207">
      <stop
         style="stop-color:#ffffff;stop-opacity:1;"
         offset="0"
         id="stop3209" />
      <stop
         style="stop-color:#252525;stop-opacity:0;"
         offset="1"
         id="stop3211" />
    </linearGradient>
    <linearGradient
       id="linearGradient7417">
      <stop
         id="stop7419"
         offset="0.0000000"
         style="stop-color:#ff5900;stop-opacity:1.0000000;" />
      <stop
         id="stop7421"
         offset="1.0000000"
         style="stop-color:#ffff00;stop-opacity:1.0000000;" />
    </linearGradient>
    <linearGradient
       id="linearGradient8197">
      <stop
         id="stop8199"
         offset="0.0000000"
         style="stop-color:#ffffff;stop-opacity:1.0000000;" />
      <stop
         id="stop8201"
         offset="1.0000000"
         style="stop-color:#ffffff;stop-opacity:0.0000000;" />
    </linearGradient>
    <linearGradient
       inkscape:collect="always"
       id="linearGradient4372">
      <stop
         style="stop-color:#0066ff;stop-opacity:1;"
         offset="0"
         id="stop4374" />
      <stop
         style="stop-color:#80b3ff;stop-opacity:1"
         offset="1"
         id="stop4376" />
    </linearGradient>
    <linearGradient
       inkscape:collect="always"
       xlink:href="#linearGradient4372"
       id="linearGradient10226"
       gradientUnits="userSpaceOnUse"
       gradientTransform="matrix(1.3648599,0,0,1.3648599,-302.85836,-97.928698)"
       x1="778.88196"
       y1="289.57986"
       x2="778.88196"
       y2="284.53162" />
    <linearGradient
       inkscape:collect="always"
       xlink:href="#linearGradient4372"
       id="linearGradient10241"
       x1="778"
       y1="295"
       x2="778"
       y2="290"
       gradientUnits="userSpaceOnUse"
       gradientTransform="matrix(1.3574389,0,0,1.3574389,-295.60663,-97.982603)" />
    <linearGradient
       inkscape:collect="always"
       xlink:href="#linearGradient4372"
       id="linearGradient10256"
       x1="779"
       y1="300"
       x2="779"
       y2="295"
       gradientUnits="userSpaceOnUse"
       gradientTransform="matrix(1.3329491,0,0,1.3329491,-274.75405,-93.070223)" />
    <linearGradient
       inkscape:collect="always"
       xlink:href="#linearGradient4372"
       id="linearGradient11116"
       x1="103.41924"
       y1="112.88807"
       x2="109.01703"
       y2="48.268024"
       gradientUnits="userSpaceOnUse" />
    <linearGradient
       id="a"
       gradientUnits="userSpaceOnUse"
       x1="15.70367"
       x2="16.933331"
       y1="294.8226"
       y2="266.54037"
       gradientTransform="matrix(2.9960283,0,0,2.9960284,-6.1827464,-773.85961)">
      <stop
         offset="0"
         stop-color="#555"
         id="stop2" />
      <stop
         offset="1"
         id="stop4" />
    </linearGradient>
    <linearGradient
       id="b"
       gradientUnits="userSpaceOnUse"
       x1="15.703671"
       x2="16.933332"
       y1="262.85138"
       y2="288.67429"
       gradientTransform="matrix(3.0992126,0,0,3.0992126,-6.3956822,-803.98609)">
      <stop
         offset="0"
         stop-color="#3b3e22"
         id="stop7" />
      <stop
         offset="1"
         stop-color="#454545"
         stop-opacity="0"
         id="stop9" />
    </linearGradient>
    <linearGradient
       inkscape:collect="always"
       xlink:href="#b"
       id="linearGradient3858"
       x1="40.7267"
       y1="11.638"
       x2="46.5448"
       y2="75.6371"
       gradientUnits="userSpaceOnUse" />
  </defs>
  <sodipodi:namedview
     id="base"
     pagecolor="#ffffff"
     bordercolor="#666666"
     borderopacity="1.0"
     inkscape:pageopacity="0.0"
     inkscape:pageshadow="2"
     inkscape:zoom="4.0041194"
     inkscape:cx="11.763516"
     inkscape:cy="61.323302"
     inkscape:current-layer="layer1"
     showgrid="true"
     inkscape:document-units="px"
     inkscape:grid-bbox="true"
     guidetolerance="0.1px"
     showguides="false"
     inkscape:guide-bbox="true"
     inkscape:window-width="1366"
     inkscape:window-height="706"
     inkscape:window-x="0"
     inkscape:window-y="0"
     inkscape:window-maximized="1"
     inkscape:snap-global="true">
    <sodipodi:guide
       orientation="horizontal"
       position="32.487481"
       id="guide2204"
       inkscape:locked="false" />
    <inkscape:grid
       type="xygrid"
       id="grid996"
       spacingx="5.8181"
       spacingy="5.8181"
       empspacing="2" />
  </sodipodi:namedview>
  <metadata
     id="metadata1312">
    <rdf:RDF>
      <cc:Work
         rdf:about="">
        <dc:format>image/svg+xml</dc:format>
        <dc:type
           rdf:resource="http://purl.org/dc/dcmitype/StillImage" />
        <cc:license
           rdf:resource="http://creativecommons.org/licenses/GPL/2.0/" />
        <dc:contributor>
          <cc:Agent>
            <dc:title>Oxygen team</dc:title>
          </cc:Agent>
        </dc:contributor>
        <dc:title></dc:title>
      </cc:Work>
      <cc:License
         rdf:about="http://creativecommons.org/licenses/LGPL/2.1/">
        <cc:permits
           rdf:resource="http://web.resource.org/cc/Reproduction" />
        <cc:permits
           rdf:resource="http://web.resource.org/cc/Distribution" />
        <cc:requires
           rdf:resource="http://web.resource.org/cc/Notice" />
        <cc:permits
           rdf:resource="http://web.resource.org/cc/DerivativeWorks" />
        <cc:requires
           rdf:resource="http://web.resource.org/cc/ShareAlike" />
        <cc:requires
           rdf:resource="http://web.resource.org/cc/SourceCode" />
      </cc:License>
    </rdf:RDF>
  </metadata>
  <g
     id="layer1"
     inkscape:label="Layer 1"
     inkscape:groupmode="layer">
    <g
       id="g3863">
      <text
         style="font-size:122.53149414px;font-family:sans-serif;letter-spacing:0;word-spacing:0;fill:url(#a);stroke-width:3.06328607"
         x="-1.9341536"
         y="108.68205"
         id="text14"
         transform="scale(0.98623208,1.0139601)">
        <tspan
           style="font-size:128.94355774px;font-family:FreeSerif;fill:url(#a);stroke-width:3.06328607"
           font-size="43.038166"
           x="-1.9341536"
           y="108.68205"
           id="tspan12">H</tspan>
      </text>
      <path
         id="path3843"
         d="M 8.3925781 25.761719 C 9.2945239 26.195832 10.109838 26.706777 10.755859 27.408203 C 12.878654 29.612957 13.246094 33.013655 13.246094 37.898438 L 13.246094 73.359375 A 66.90815 31.99955 0 0 0 22.107422 74.714844 L 22.107422 69.013672 A 2.0557256 2.1135226 0 0 1 24.162109 66.902344 L 62.693359 66.902344 A 2.0557256 2.1135226 0 0 1 64.748047 69.013672 L 64.748047 72.912109 A 66.90815 31.99955 0 0 0 73.609375 70.628906 L 73.609375 37.898438 C 73.609375 33.013655 73.976815 29.612957 76.099609 27.408203 C 76.745632 26.706777 77.560945 26.195832 78.462891 25.761719 L 59.896484 25.761719 C 60.79843 26.195832 61.613744 26.706777 62.259766 27.408203 C 64.383265 29.613701 64.748047 33.014245 64.748047 37.898438 L 64.748047 63.261719 A 2.0557256 2.1135226 0 0 1 62.693359 65.375 L 24.162109 65.375 A 2.0557256 2.1135226 0 0 1 22.107422 63.261719 L 22.107422 37.898438 C 22.107422 33.014245 22.472201 29.613701 24.595703 27.408203 C 25.241726 26.706776 26.057038 26.195832 26.958984 25.761719 L 8.3925781 25.761719 z "
         style="opacity:0.75;fill:url(#linearGradient3858);fill-opacity:1;stroke:none;stroke-width:5.81799984;stroke-linecap:round;stroke-linejoin:round;stroke-miterlimit:4;stroke-dasharray:none;stroke-dashoffset:0;stroke-opacity:1" />
    </g>
    <text
       xml:space="preserve"
       style="font-style:normal;font-variant:normal;font-weight:bold;font-stretch:normal;font-size:69.98730469px;line-height:125%;font-family:'Liberation Sans';-inkscape-font-specification:'Liberation Sans, Bold';font-variant-ligatures:normal;font-variant-caps:normal;font-variant-numeric:normal;font-feature-settings:normal;text-align:start;letter-spacing:0px;word-spacing:0px;writing-mode:lr-tb;text-anchor:start;fill:#000000;fill-opacity:1;stroke:none;stroke-width:1.74969089px;stroke-linecap:butt;stroke-linejoin:miter;stroke-opacity:1"
       x="147.88242"
       y="55.393745"
       id="text11096"
       transform="scale(0.99978865,1.0002114)"><tspan
         sodipodi:role="line"
         id="tspan11094"
         x="147.88242"
         y="55.393745"
         style="font-style:normal;font-variant:normal;font-weight:bold;font-stretch:normal;font-size:69.98730469px;font-family:'Liberation Sans';-inkscape-font-specification:'Liberation Sans, Bold';font-variant-ligatures:normal;font-variant-caps:normal;font-variant-numeric:normal;font-feature-settings:normal;text-align:start;writing-mode:lr-tb;text-anchor:start;stroke-width:1.74969089px">4</tspan></text>
    <g
       id="g11124"
       transform="matrix(0.90944586,0,0,0.90944586,-47.699287,9.2946964)">
      <path
         sodipodi:type="inkscape:offset"
         inkscape:radius="11.608818"
         inkscape:original="M 101.44922 67.625 L 81.115234 98.757812 L 81.115234 105.96875 L 103.01953 105.96875 L 103.01953 115.77734 L 112.17969 115.77734 L 112.17969 105.96875 L 118.60352 105.96875 L 118.60352 98.826172 L 112.17969 98.826172 L 112.17969 67.625 L 101.44922 67.625 z M 103.32812 76.306641 C 103.28256 76.648376 103.23697 77.127065 103.19141 77.742188 C 103.16862 78.334528 103.13346 78.960406 103.08789 79.621094 C 103.06511 80.281781 103.04231 80.930454 103.01953 81.568359 L 103.01953 83.072266 L 103.01953 98.826172 L 88.941406 98.826172 L 100.11523 81.841797 C 100.36584 81.454497 100.65175 80.998603 100.9707 80.474609 C 101.31244 79.950616 101.62961 79.426337 101.92578 78.902344 C 102.24473 78.355568 102.53064 77.856037 102.78125 77.400391 C 103.03186 76.921962 103.21421 76.557246 103.32812 76.306641 z "
         style="font-style:normal;font-variant:normal;font-weight:bold;font-stretch:normal;font-size:69.98730469px;line-height:125%;font-family:'Liberation Sans';-inkscape-font-specification:'Liberation Sans, Bold';font-variant-ligatures:normal;font-variant-caps:normal;font-variant-numeric:normal;font-feature-settings:normal;text-align:start;letter-spacing:0px;word-spacing:0px;writing-mode:lr-tb;text-anchor:start;fill:url(#linearGradient11116);fill-opacity:1;stroke:none;stroke-width:1.74969089px;stroke-linecap:butt;stroke-linejoin:miter;stroke-opacity:1"
         id="path11104"
         d="m 101.44922,56.015625 a 11.609979,11.609979 0 0 0 -9.718751,5.261719 L 71.396484,92.410156 a 11.609979,11.609979 0 0 0 -1.890625,6.347656 v 7.210938 a 11.609979,11.609979 0 0 0 11.609375,11.60937 h 10.451172 a 11.609979,11.609979 0 0 0 11.453124,9.8086 h 9.16016 a 11.609979,11.609979 0 0 0 11.58984,-11.03711 11.609979,11.609979 0 0 0 6.44336,-10.38086 v -7.142578 a 11.609979,11.609979 0 0 0 -6.42383,-10.38086 V 67.625 A 11.609979,11.609979 0 0 0 112.17969,56.015625 Z"
         transform="matrix(0.99978865,0,0,1.0002114,54.038018,3.1787069)" />
      <g
         id="text11108"
         style="font-style:normal;font-variant:normal;font-weight:bold;font-stretch:normal;font-size:69.98730469px;line-height:125%;font-family:'Liberation Sans';-inkscape-font-specification:'Liberation Sans, Bold';font-variant-ligatures:normal;font-variant-caps:normal;font-variant-numeric:normal;font-feature-settings:normal;text-align:start;letter-spacing:0px;word-spacing:0px;writing-mode:lr-tb;text-anchor:start;fill:#ddebff;fill-opacity:1;stroke:none;stroke-width:1.74969089px;stroke-linecap:butt;stroke-linejoin:miter;stroke-opacity:1"
         transform="scale(0.99978865,1.0002114)"
         aria-label="4">
        <path
           id="path11118"
           style="font-style:normal;font-variant:normal;font-weight:bold;font-stretch:normal;font-size:69.98730469px;font-family:'Liberation Sans';-inkscape-font-specification:'Liberation Sans, Bold';font-variant-ligatures:normal;font-variant-caps:normal;font-variant-numeric:normal;font-feature-settings:normal;text-align:start;writing-mode:lr-tb;text-anchor:start;fill:#ddebff;fill-opacity:1;stroke-width:1.74969089px"
           d="m 166.2282,109.14665 v 9.80779 h -9.1585 v -9.80779 h -21.9052 v -7.21061 l 20.33322,-31.132048 h 10.73048 v 31.200398 h 6.42461 v 7.14226 z m -9.1585,-22.896241 q 0,-0.58095 0,-1.503634 0.0342,-0.956858 0.0683,-1.947889 0.0684,-0.991031 0.10252,-1.879542 0.0684,-0.922684 0.13669,-1.435286 -0.17086,0.375908 -0.54677,1.093552 -0.37591,0.683469 -0.85434,1.503633 -0.44425,0.78599 -0.95686,1.571981 -0.47843,0.78599 -0.85433,1.366939 l -11.17474,16.984227 h 14.07948 z"
           inkscape:connector-curvature="0" />
      </g>
    </g>
  </g>
</svg>
